X:1
T:Lady of Carlisle
M:4/4
L:1/8
K:G
 AA E| A4- AE AA| F E- E2- Ee ed| e4- e2 A/2 e d/2| ^c4- cA cd| e e- e2- eE AA|\

M:2/4
 F E/2E/2 AA| ^cA c/2 B3/2| A4|
M:4/4
 z4 z||

